X:1
T:Title
%%score { 1 | 2 }
L:1/8
Q:1/4=100
M:4/4
K:Bb
V:1 treble nm="Grand Piano"
V:2 bass 
V:1
 [DF]3 [DF] [_DG]2 [=DF]2 | [FB]3 [FA] [FA]2 G2 | B2 G2 F2 B2 | A2 c2 [DB]4 | B3 B B2 A2 | %5
w: J.~Lincoln~Hall * * *|||||
 d3 d d2 B2 | [=EA]2 [EG]2 [E^F]2 [EG]2 | [Ed]2 [Ec]2 F4 | e3 e e2 e2 | d3 d d2 B2 | G3 A B2 A2 | %11
w: ||||||
 [B,GB]2 [Gc]2 [^Fd]4 | d3 d e2 d2 | [=Ed]3 [Ec] B2 G2 | F3 d [Bf]2 [Ae]2 | [Bd]2 [Ac]2 [DFB]4 |] %16
w: |||||
V:2
 [B,,F,]3 [B,,F,] [B,,=E,]2 [B,,F,]2 | [D,B,]3 [D,B,] [E,B,]2 [E,B,E]2 | %2
 [E,G,E]2 [E,B,E]2 [F,B,D]2 [F,DF]2 | [F,CE]2 [F,A,E]2 [B,,B,]4 | [B,DF]3 [B,DF] [CD^F]2 [CDF]2 | %5
 [B,DF]3 [A,C^F] [G,B,G]2 [G,B,G]2 | [C,B,]2 [C,B,]2 [C,B,]2 [C,B,]2 | [C,G,]2 [C,B,]2 [F,A,]4 | %8
 [F,A,F]3 [G,B,F] [A,CF]2 [F,A,F]2 | [B,DF]3 [A,C^F] [G,B,G]2 [G,DG]2 | G,3 A, B,2 A,2 | %11
 E,2 [E,G,]2 [D,A,]4 | [G,=B,F]3 [G,B,F] [G,B,F]2 [G,B,F]2 | [C,B,]3 [C,B,] [=E,G,_D]2 [E,B,D]2 | %14
 [F,B,D]3 [F,B,F] [F,D]2 [F,C]2 | [F,F]2 [F,E]2 [B,,B,]4 |] %16

